dist/assets/images/card/armag.svg

<svg width="188" height="80" viewBox="0 0 188 80" fill="none" xmlns="http://www.w3.org/2000/svg">
<rect width="188" height="80" fill="#F6F6F6"/>
<path fill-rule="evenodd" clip-rule="evenodd" d="M66.5617 32.0104C65.6124 31.7979 64.4785 31.7183 63.1072 31.7183H60.9448V35.1709C61.6305 35.1709 62.2106 35.1709 62.6589 35.1975C63.2127 35.224 63.7664 35.3303 64.3202 35.5162C64.7422 35.6755 65.1113 35.9146 65.4542 36.2864C65.7706 36.6582 65.9288 37.1097 65.9288 37.6143C65.9288 38.1455 65.8497 38.597 65.6915 38.9423C65.5333 39.3141 65.2696 39.6328 64.9267 39.8718C64.5048 40.164 64.0038 40.3765 63.3973 40.4561C62.7907 40.5624 62.026 40.6155 61.0767 40.6155H60.9185V44.0947H62.949C64.5048 44.0947 65.8233 43.9088 66.8782 43.537C67.933 43.1651 68.8823 42.6074 69.7261 41.8903C70.359 41.3591 70.8337 40.6952 71.1765 39.8984C71.5193 39.1016 71.6775 38.3049 71.6775 37.4815C71.6775 36.4192 71.4402 35.5162 70.9919 34.746C70.5436 34.0023 69.8844 33.3649 69.0141 32.8869C68.3285 32.515 67.511 32.1963 66.5617 32.0104Z" fill="black"/>
<path fill-rule="evenodd" clip-rule="evenodd" d="M59.151 50.9469V31.7183H53.6133V50.9469H59.151Z" fill="black"/>
<path fill-rule="evenodd" clip-rule="evenodd" d="M83.5969 50.9735V38.8095L77.7954 33.7102V50.9735H83.5969Z" fill="black"/>
<path fill-rule="evenodd" clip-rule="evenodd" d="M95.5429 31.7454L92.1938 35.5964L95.9121 38.8632L96.5449 38.1992L96.6768 38.0664V51.0006H102.847V31.6392H95.6484L95.5429 31.7454Z" fill="black"/>
<path fill-rule="evenodd" clip-rule="evenodd" d="M91.0597 36.9244L84.9418 31.6392H77.7954V31.6923L91.4289 43.6172L94.8043 40.0583L91.0597 36.9244Z" fill="black"/>
<path fill-rule="evenodd" clip-rule="evenodd" d="M144.222 31.6646H138.658V50.9463H144.222C144.222 44.5191 144.222 38.0918 144.222 31.6646Z" fill="black"/>
<path fill-rule="evenodd" clip-rule="evenodd" d="M145.621 31.7183V35.888H155.457V31.7183H145.621Z" fill="black"/>
<path fill-rule="evenodd" clip-rule="evenodd" d="M118.564 31.6646L127.451 50.9994H132.752L124.181 31.6646H118.564Z" fill="black"/>
<path fill-rule="evenodd" clip-rule="evenodd" d="M108.227 50.9994H114.292L115.927 47.0422H123.732L122.097 43.4833H117.351L119.619 38.1715L116.744 31.6646L108.227 50.9994Z" fill="black"/>
<path fill-rule="evenodd" clip-rule="evenodd" d="M34.3379 31.5854L43.2247 50.9203H48.5251L39.9548 31.5854H34.3379Z" fill="black"/>
<path fill-rule="evenodd" clip-rule="evenodd" d="M24 50.9203H30.0652L31.7001 46.9896H39.5057L37.8708 43.4042H33.1241L35.392 38.1189L32.5176 31.5854L24 50.9203Z" fill="black"/>
<path d="M161.838 28C161.258 28 160.73 28.239 160.335 28.6374C159.913 29.0889 159.675 29.5935 159.675 30.2044C159.675 30.7887 159.913 31.2933 160.335 31.6917C160.756 32.1432 161.284 32.3291 161.838 32.3291C162.444 32.3291 162.972 32.1432 163.367 31.6917C163.789 31.2667 164 30.7621 164 30.2044C164 29.567 163.789 29.0624 163.367 28.6374C162.972 28.239 162.444 28 161.838 28ZM160.941 31.2933V29.0889H161.864C162.101 29.0889 162.26 29.1155 162.365 29.142C162.471 29.1686 162.55 29.2483 162.629 29.3545C162.682 29.4607 162.734 29.567 162.734 29.6998C162.734 29.8591 162.682 29.9919 162.602 30.1247C162.497 30.2309 162.365 30.3106 162.18 30.3372C162.286 30.3903 162.365 30.4434 162.418 30.5231C162.471 30.6028 162.576 30.709 162.682 30.8949L162.945 31.3199H162.418L162.101 30.8418C161.996 30.6824 161.917 30.5497 161.864 30.5231C161.811 30.47 161.785 30.4434 161.732 30.4434C161.679 30.4169 161.6 30.4169 161.495 30.4169H161.389V31.3464H160.941V31.2933ZM161.389 30.0185H161.706C161.917 30.0185 162.049 30.0185 162.101 29.9919C162.154 29.9654 162.207 29.9388 162.233 29.8857C162.26 29.8326 162.286 29.7794 162.286 29.7263C162.286 29.6467 162.26 29.5935 162.233 29.5404C162.207 29.4873 162.128 29.4607 162.075 29.4607C162.049 29.4607 161.943 29.4607 161.759 29.4607H161.389V30.0185ZM160.572 28.9296C160.915 28.6109 161.363 28.3984 161.838 28.3984C162.312 28.3984 162.761 28.6109 163.103 28.9296C163.446 29.3014 163.631 29.6998 163.631 30.2309C163.631 30.709 163.446 31.1605 163.103 31.4792C162.761 31.8245 162.312 32.0104 161.838 32.0104C161.363 32.0104 160.915 31.8245 160.572 31.4792C160.229 31.1605 160.044 30.709 160.071 30.2309C160.071 29.6732 160.255 29.3014 160.572 28.9296Z" fill="black"/>
</svg>

<svg width="188" height="80" fill="none" xmlns="http://www.w3.org/2000/svg"><path fill="#F6F6F6" d="M0 0h188v80H0z"/><path fill-rule="evenodd" clip-rule="evenodd" d="M66.562 32.01c-.95-.212-2.084-.292-3.455-.292h-2.162v3.453c.685 0 1.266 0 1.714.026a6.121 6.121 0 011.661.32c.422.158.791.398 1.134.77.317.371.475.823.475 1.327 0 .532-.08.983-.237 1.328a2.17 2.17 0 01-.765.93 3.421 3.421 0 01-1.53.584c-.606.106-1.371.16-2.32.16h-.158v3.479h2.03c1.556 0 2.874-.186 3.93-.558a8.995 8.995 0 002.847-1.647c.633-.53 1.108-1.195 1.45-1.992a6.017 6.017 0 00.501-2.417c0-1.062-.237-1.965-.685-2.735-.448-.744-1.108-1.381-1.978-1.86a8.592 8.592 0 00-2.452-.876zm-7.411 18.937V31.718h-5.538v19.229h5.538zm24.446.027V38.81l-5.802-5.1v17.264h5.802zm11.946-19.229l-3.35 3.851 3.72 3.267.632-.664.132-.133v12.935h6.17V31.639h-7.199l-.105.106z" fill="#000"/><path fill-rule="evenodd" clip-rule="evenodd" d="M91.06 36.924l-6.118-5.285h-7.147v.053L91.43 43.617l3.375-3.559-3.744-3.134zm53.162-5.259h-5.564v19.281h5.564V31.665zm1.399.053v4.17h9.836v-4.17h-9.836zm-27.057-.053l8.887 19.334h5.301l-8.571-19.334h-5.617zM108.227 51h6.065l1.635-3.958h7.805l-1.635-3.559h-4.746l2.268-5.311-2.875-6.507-8.517 19.334zM34.338 31.585l8.887 19.335h5.3l-8.57-19.335h-5.617zM24 50.92h6.065l1.635-3.93h7.806l-1.635-3.586h-4.747l2.268-5.285-2.874-6.534L24 50.92z" fill="#000"/><path d="M161.838 28c-.58 0-1.108.239-1.503.637-.422.452-.66.956-.66 1.567 0 .585.238 1.09.66 1.488.421.451.949.637 1.503.637.606 0 1.134-.186 1.529-.637.422-.425.633-.93.633-1.488 0-.637-.211-1.142-.633-1.567a2.121 2.121 0 00-1.529-.637zm-.897 3.293V29.09h.923c.237 0 .396.027.501.053.106.027.185.106.264.213a.754.754 0 01.105.345c0 .16-.052.292-.132.425a.713.713 0 01-.422.212.575.575 0 01.238.186c.053.08.158.186.264.372l.263.425h-.527l-.317-.478c-.105-.16-.184-.292-.237-.319-.053-.053-.079-.08-.132-.08-.053-.026-.132-.026-.237-.026h-.106v.93h-.448v-.054zm.448-1.274h.317c.211 0 .343 0 .395-.027.053-.027.106-.053.132-.106a.371.371 0 00.053-.16.38.38 0 00-.053-.186c-.026-.053-.105-.08-.158-.08h-.686v.558zm-.817-1.09c.343-.318.791-.53 1.266-.53.474 0 .923.212 1.265.53.343.372.528.77.528 1.302 0 .478-.185.93-.528 1.248a1.77 1.77 0 01-2.531 0 1.573 1.573 0 01-.501-1.248c0-.558.184-.93.501-1.301z" fill="#000"/></svg>
